; generated by PrusaSlicer 2.2.0+win64 on 2021-02-23 at 05:52:01 UTC

; 

; external perimeters extrusion width = 0.45mm
; perimeters extrusion width = 0.45mm
; infill extrusion width = 0.45mm
; solid infill extrusion width = 0.45mm
; top infill extrusion width = 0.40mm
; first layer extrusion width = 0.42mm

M73 P0 R9
M73 Q0 S9
M201 X1000 Y1000 Z200 E5000 ; sets maximum accelerations, mm/sec^2
M203 X200 Y200 Z12 E120 ; sets maximum feedrates, mm/sec
M204 P1250 R1250 T1250 ; sets acceleration (P, T) and retract acceleration (R), mm/sec^2
M205 X8.00 Y8.00 Z0.40 E4.50 ; sets the jerk limits, mm/sec
M205 S0 T0 ; sets the minimum extruding and travel feed rate, mm/sec
M107
M862.3 P "MK3S" ; printer model check
M862.1 P0.4 ; nozzle diameter check
M115 U3.9.3 ; tell printer latest fw version
G90 ; use absolute coordinates
M83 ; extruder relative mode
M104 S215 ; set extruder temp
M140 S60 ; set bed temp
M190 S60 ; wait for bed temp
M109 S215 ; wait for extruder temp
G28 W ; home all without mesh bed level
G80 ; mesh bed leveling
G1 Y-3.0 F1000.0 ; go outside print area
G92 E0.0
G1 X60.0 E9.0 F1000.0 ; intro line
M73 Q0 S9
M73 P0 R9
G1 X100.0 E12.5 F1000.0 ; intro line
G92 E0.0
M221 S95

; Don't change E values below. Excessive value can damage the printer.
M907 E430 ; set extruder motor current
G21 ; set units to millimeters
G90 ; use absolute coordinates
M83 ; use relative distances for extrusion
M900 K0.05 ; Filament gcode LA 1.5
M900 K30 ; Filament gcode LA 1.0
;BEFORE_LAYER_CHANGE
G92 E0.0
;0.2


G1 E-0.80000 F2100.00000
G1 Z0.400 F10800.000
;AFTER_LAYER_CHANGE
;0.2
G1 X121.133 Y101.145
G1 Z0.200
G1 E0.80000 F2100.00000
M204 S1000
G1 F900
G1 X121.934 Y100.482 E0.03260
G1 X122.923 Y99.950 E0.03522
G1 X123.955 Y99.641 E0.03375
G1 X124.990 Y99.540 E0.03260
G1 X126.107 Y99.654 E0.03522
G1 X127.098 Y99.959 E0.03250
G1 X128.017 Y100.449 E0.03265
G1 X128.859 Y101.137 E0.03411
G1 X129.563 Y102.002 E0.03497
G1 X130.055 Y102.935 E0.03306
G1 X130.356 Y103.940 E0.03291
G1 X130.459 Y105.066 E0.03546
G1 X130.341 Y106.133 E0.03366
G1 X130.026 Y107.134 E0.03291
G1 X129.532 Y108.044 E0.03245
G1 X128.801 Y108.919 E0.03576
G1 X127.981 Y109.575 E0.03290
G1 X127.065 Y110.055 E0.03245
G1 X126.004 Y110.367 E0.03466
G1 X124.981 Y110.460 E0.03220
G1 X123.950 Y110.358 E0.03250
G1 X122.919 Y110.048 E0.03375
G1 X121.935 Y109.519 E0.03501
G1 X121.130 Y108.852 E0.03280
G1 X120.474 Y108.055 E0.03235
G1 X119.964 Y107.109 E0.03370
G1 X119.640 Y106.041 E0.03496
G1 X119.540 Y104.997 E0.03291
G1 X119.640 Y103.957 E0.03276
G1 X119.965 Y102.889 E0.03501
G1 X120.475 Y101.944 E0.03365
G1 X121.095 Y101.191 E0.03057
G1 X121.384 Y101.430 F10800.000
G1 F900
G1 X122.145 Y100.795 E0.03108
G1 X123.066 Y100.299 E0.03279
G1 X124.028 Y100.011 E0.03149
G1 X124.992 Y99.917 E0.03036
G1 X126.034 Y100.024 E0.03284
G1 X126.954 Y100.307 E0.03018
G1 X127.807 Y100.762 E0.03033
G1 X128.592 Y101.404 E0.03180
G1 X129.251 Y102.213 E0.03270
G1 X129.707 Y103.079 E0.03069
G1 X129.986 Y104.011 E0.03050
G1 X130.082 Y105.066 E0.03320
G1 X129.972 Y106.056 E0.03122
G1 X129.678 Y106.988 E0.03065
G1 X129.221 Y107.831 E0.03007
G1 X128.537 Y108.651 E0.03349
G1 X127.777 Y109.258 E0.03050
G1 X126.923 Y109.705 E0.03022
G1 X125.932 Y109.996 E0.03240
G1 X124.982 Y110.083 E0.02989
G1 X124.024 Y109.989 E0.03018
G1 X123.062 Y109.699 E0.03152
G1 X122.144 Y109.204 E0.03270
G1 X121.395 Y108.584 E0.03047
G1 X120.788 Y107.845 E0.03001
G1 X120.312 Y106.964 E0.03139
G1 X120.010 Y105.969 E0.03260
G1 X119.917 Y104.996 E0.03065
G1 X120.011 Y104.028 E0.03051
G1 X120.314 Y103.032 E0.03264
G1 X120.789 Y102.152 E0.03135
G1 X121.346 Y101.476 E0.02746
G1 X121.636 Y101.715 F10800.000
G1 F900
G1 X122.353 Y101.109 E0.02943
G1 X123.210 Y100.648 E0.03051
G1 X124.098 Y100.381 E0.02908
G1 X124.990 Y100.294 E0.02811
G1 X125.961 Y100.394 E0.03059
G1 X126.806 Y100.654 E0.02773
G1 X127.598 Y101.076 E0.02814
G1 X128.326 Y101.671 E0.02948
G1 X128.936 Y102.421 E0.03030
G1 X129.357 Y103.220 E0.02833
G1 X129.616 Y104.083 E0.02825
G1 X129.705 Y105.066 E0.03093
G1 X129.603 Y105.982 E0.02893
G1 X129.331 Y106.841 E0.02825
G1 X128.858 Y107.694 E0.03056
G1 X128.269 Y108.385 E0.02848
G1 X127.568 Y108.944 E0.02811
G1 X126.781 Y109.356 E0.02784
G1 X125.859 Y109.626 E0.03013
G1 X124.983 Y109.706 E0.02759
G1 X124.094 Y109.618 E0.02802
G1 X123.205 Y109.350 E0.02911
G1 X122.352 Y108.890 E0.03038
G1 X121.661 Y108.317 E0.02814
G1 X121.101 Y107.635 E0.02768
G1 X120.661 Y106.819 E0.02907
G1 X120.379 Y105.892 E0.03038
G1 X120.294 Y104.999 E0.02811
G1 X120.380 Y104.103 E0.02825
G1 X120.661 Y103.179 E0.03026
G1 X121.104 Y102.360 E0.02919
G1 X121.598 Y101.761 E0.02434
G1 X121.887 Y102.000 F10800.000
G1 F900
G1 X122.565 Y101.421 E0.02792
G1 X123.353 Y100.997 E0.02809
G1 X124.172 Y100.751 E0.02679
G1 X124.989 Y100.671 E0.02573
G1 X125.884 Y100.763 E0.02821
G1 X126.663 Y101.003 E0.02556
G1 X127.389 Y101.390 E0.02582
G1 X128.056 Y101.935 E0.02700
G1 X128.621 Y102.628 E0.02804
G1 X129.007 Y103.362 E0.02598
G1 X129.246 Y104.155 E0.02598
G1 X129.328 Y105.061 E0.02852
G1 X129.233 Y105.905 E0.02662
G1 X128.983 Y106.695 E0.02599
G1 X128.547 Y107.480 E0.02815
G1 X128.005 Y108.116 E0.02622
G1 X127.363 Y108.627 E0.02573
G1 X126.639 Y109.006 E0.02560
G1 X125.787 Y109.256 E0.02785
G1 X124.983 Y109.329 E0.02531
G1 X124.172 Y109.249 E0.02556
G1 X123.352 Y109.003 E0.02686
G1 X122.564 Y108.578 E0.02806
G1 X121.930 Y108.052 E0.02582
G1 X121.416 Y107.428 E0.02536
G1 X121.009 Y106.674 E0.02685
G1 X120.749 Y105.819 E0.02803
G1 X120.671 Y104.998 E0.02586
G1 X120.750 Y104.177 E0.02586
G1 X121.010 Y103.322 E0.02801
G1 X121.416 Y102.572 E0.02675
G1 X121.849 Y102.046 E0.02136
G1 X122.139 Y102.285 F10800.000
G1 F900
G1 X122.200 Y102.211 E0.00300
G1 X122.773 Y101.736 E0.02336
G1 X123.501 Y101.344 E0.02592
G1 X124.250 Y101.120 E0.02450
G1 X124.991 Y101.048 E0.02336
G1 X125.815 Y101.133 E0.02596
G1 X126.520 Y101.352 E0.02315
G1 X127.178 Y101.702 E0.02338
G1 X127.790 Y102.202 E0.02477
G1 X128.307 Y102.837 E0.02566
G1 X128.659 Y103.507 E0.02375
G1 X128.876 Y104.228 E0.02359
G1 X128.951 Y105.065 E0.02635
G1 X128.864 Y105.828 E0.02407
G1 X128.636 Y106.549 E0.02372
G1 X128.234 Y107.269 E0.02586
G1 X127.737 Y107.850 E0.02396
G1 X127.154 Y108.313 E0.02336
G1 X126.494 Y108.659 E0.02336
G1 X125.715 Y108.886 E0.02545
G1 X124.983 Y108.952 E0.02303
G1 X124.242 Y108.879 E0.02335
G1 X123.495 Y108.654 E0.02448
G1 X122.772 Y108.264 E0.02575
G1 X122.195 Y107.784 E0.02350
G1 X121.728 Y107.217 E0.02304
G1 X121.357 Y106.530 E0.02448
G1 X121.119 Y105.746 E0.02570
G1 X121.048 Y104.996 E0.02360
G1 X121.120 Y104.251 E0.02348
G1 X121.359 Y103.466 E0.02574
G1 X121.730 Y102.780 E0.02444
G1 X122.101 Y102.331 E0.01824
; printing object unibody_adaptor_option.stl id:0 copy 0
G1 F8640.000
G1 X122.200 Y102.211 E-0.03593
G1 X122.773 Y101.736 E-0.17203
G1 X123.501 Y101.344 E-0.19089
G1 X124.250 Y101.120 E-0.18043
G1 X124.991 Y101.048 E-0.17202
G1 X125.029 Y101.052 E-0.00870
G1 E-0.04000 F2100.00000
G1 Z0.600 F10800.000
G1 X124.179 Y104.250
G1 Z0.200
G1 E0.80000 F2100.00000
G1 F900
G1 X124.361 Y104.091 E0.00760
G1 X124.568 Y103.976 E0.00741
G1 X124.794 Y103.908 E0.00740
G1 X125.030 Y103.889 E0.00743
G1 X125.372 Y103.952 E0.01089
G1 X125.589 Y104.058 E0.00760
G1 X125.775 Y104.204 E0.00741
G1 X125.926 Y104.386 E0.00741
G1 X126.038 Y104.600 E0.00758
G1 X126.110 Y104.935 E0.01074
G1 X126.097 Y105.177 E0.00758
G1 X126.033 Y105.410 E0.00758
G1 X125.860 Y105.705 E0.01074
G1 X125.686 Y105.874 E0.00758
G1 X125.486 Y105.999 E0.00741
G1 X125.264 Y106.079 E0.00741
G1 X125.030 Y106.111 E0.00741
G1 X124.794 Y106.092 E0.00741
G1 X124.568 Y106.024 E0.00741
G1 X124.361 Y105.909 E0.00741
G1 X124.184 Y105.754 E0.00741
G1 X124.043 Y105.564 E0.00740
G1 X123.945 Y105.349 E0.00743
G1 X123.888 Y105.006 E0.01089
G1 X123.914 Y104.765 E0.00759
G1 X123.988 Y104.540 E0.00743
G1 X124.146 Y104.300 E0.00901
G1 X124.103 Y104.020 F10800.000
G1 X123.993 Y104.305
G1 F900
G1 X124.201 Y104.074 E0.00974
G1 X124.373 Y103.948 E0.00669
G1 X124.563 Y103.856 E0.00662
G1 X124.763 Y103.799 E0.00650
G1 X125.079 Y103.779 E0.00993
G1 X125.289 Y103.811 E0.00668
G1 X125.485 Y103.877 E0.00649
G1 X125.757 Y104.039 E0.00993
G1 X125.909 Y104.180 E0.00650
G1 X126.036 Y104.349 E0.00662
G1 X126.133 Y104.538 E0.00668
G1 X126.214 Y104.845 E0.00993
G1 X126.223 Y105.052 E0.00650
G1 X126.196 Y105.261 E0.00662
G1 X126.132 Y105.464 E0.00669
G1 X125.979 Y105.735 E0.00974
G1 X125.837 Y105.894 E0.00669
G1 X125.674 Y106.022 E0.00649
G1 X125.389 Y106.160 E0.00993
G1 X125.182 Y106.211 E0.00668
G1 X124.972 Y106.224 E0.00662
G1 X124.766 Y106.201 E0.00650
G1 X124.465 Y106.101 E0.00993
G1 X124.287 Y105.995 E0.00650
G1 X124.126 Y105.858 E0.00662
G1 X123.991 Y105.693 E0.00668
G1 X123.847 Y105.411 E0.00993
G1 X123.794 Y105.211 E0.00649
G1 X123.776 Y104.999 E0.00668
G1 X123.817 Y104.685 E0.00993
G1 X123.887 Y104.490 E0.00649
G1 X123.963 Y104.357 E0.00481
G1 X124.302 Y104.338 F10800.000
; stop printing object unibody_adaptor_option.stl id:0 copy 0
M106 S255
;BEFORE_LAYER_CHANGE
G92 E0.0
;0.4


G1 F8640.000
G1 X124.201 Y104.074 E-0.08531
G1 X124.373 Y103.948 E-0.04926
G1 X124.563 Y103.856 E-0.04875
G1 X124.763 Y103.799 E-0.04784
G1 X125.079 Y103.779 E-0.07311
G1 X125.289 Y103.811 E-0.04921
G1 X125.485 Y103.877 E-0.04778
G1 X125.757 Y104.039 E-0.07316
G1 X125.909 Y104.180 E-0.04785
G1 X126.036 Y104.349 E-0.04875
G1 X126.133 Y104.538 E-0.04921
G1 X126.214 Y104.845 E-0.07311
G1 X126.223 Y105.052 E-0.04784
G1 X126.213 Y105.132 E-0.01882
G1 E-0.04000 F2100.00000
G1 Z0.600 F10800.000
;AFTER_LAYER_CHANGE
;0.4
G1 X130.459 Y105.066
G1 Z0.400
G1 E0.80000 F2100.00000
G1 F900
G1 X130.341 Y106.133 E0.03366
G1 X130.026 Y107.134 E0.03291
G1 X129.532 Y108.044 E0.03245
G1 X128.801 Y108.919 E0.03576
G1 X127.981 Y109.575 E0.03290
G1 X127.065 Y110.055 E0.03245
G1 X126.004 Y110.367 E0.03466
G1 X124.981 Y110.460 E0.03220
G1 X123.950 Y110.358 E0.03250
G1 X122.919 Y110.048 E0.03375
G1 X121.935 Y109.519 E0.03501
G1 X121.130 Y108.852 E0.03280
G1 X120.474 Y108.055 E0.03235
G1 X119.964 Y107.109 E0.03370
G1 X119.640 Y106.041 E0.03496
G1 X119.540 Y104.997 E0.03291
G1 X119.640 Y103.957 E0.03276
G1 X119.965 Y102.889 E0.03501
G1 X120.475 Y101.944 E0.03365
G1 X121.133 Y101.145 E0.03245
G1 X121.934 Y100.482 E0.03260
G1 X122.923 Y99.950 E0.03522
G1 X123.955 Y99.641 E0.03375
G1 X124.990 Y99.540 E0.03260
G1 X126.107 Y99.654 E0.03522
G1 X127.098 Y99.959 E0.03250
G1 X128.017 Y100.449 E0.03265
G1 X128.859 Y101.137 E0.03411
G1 X129.563 Y102.002 E0.03497
G1 X130.055 Y102.935 E0.03306
G1 X130.356 Y103.940 E0.03291
G1 X130.454 Y105.006 E0.03358
G1 X130.080 Y105.040 F10800.000
G1 F900
G1 X129.972 Y106.056 E0.03201
G1 X129.678 Y106.988 E0.03065
G1 X129.221 Y107.831 E0.03007
G1 X128.537 Y108.651 E0.03349
G1 X127.777 Y109.258 E0.03050
G1 X126.923 Y109.705 E0.03022
G1 X125.932 Y109.996 E0.03240
G1 X124.982 Y110.083 E0.02989
G1 X124.024 Y109.989 E0.03018
G1 X123.062 Y109.699 E0.03152
G1 X122.144 Y109.204 E0.03270
G1 X121.395 Y108.584 E0.03047
G1 X120.788 Y107.845 E0.03001
G1 X120.312 Y106.964 E0.03139
G1 X120.010 Y105.969 E0.03260
G1 X119.917 Y104.996 E0.03065
G1 X120.011 Y104.028 E0.03051
G1 X120.314 Y103.032 E0.03264
G1 X120.789 Y102.152 E0.03135
G1 X121.399 Y101.412 E0.03007
G1 X122.145 Y100.795 E0.03036
G1 X123.066 Y100.299 E0.03279
G1 X124.028 Y100.011 E0.03149
G1 X124.992 Y99.917 E0.03036
G1 X126.034 Y100.024 E0.03284
G1 X126.954 Y100.307 E0.03018
G1 X127.807 Y100.762 E0.03033
G1 X128.592 Y101.404 E0.03180
G1 X129.251 Y102.213 E0.03270
G1 X129.707 Y103.079 E0.03069
G1 X129.986 Y104.011 E0.03050
G1 X130.074 Y104.981 E0.03052
G1 X129.700 Y105.015 F10800.000
G1 F900
G1 X129.603 Y105.982 E0.03050
G1 X129.331 Y106.841 E0.02825
G1 X128.858 Y107.694 E0.03056
G1 X128.269 Y108.385 E0.02848
G1 X127.568 Y108.944 E0.02811
G1 X126.781 Y109.356 E0.02784
G1 X125.859 Y109.626 E0.03013
G1 X124.983 Y109.706 E0.02759
G1 X124.094 Y109.618 E0.02802
G1 X123.205 Y109.350 E0.02911
G1 X122.352 Y108.890 E0.03038
G1 X121.661 Y108.317 E0.02814
G1 X121.101 Y107.635 E0.02768
G1 X120.661 Y106.819 E0.02907
G1 X120.379 Y105.892 E0.03038
G1 X120.294 Y104.999 E0.02811
G1 X120.380 Y104.103 E0.02825
G1 X120.661 Y103.179 E0.03026
G1 X121.104 Y102.360 E0.02919
G1 X121.666 Y101.679 E0.02770
G1 X122.353 Y101.109 E0.02798
G1 X123.210 Y100.648 E0.03051
G1 X124.098 Y100.381 E0.02908
G1 X124.990 Y100.294 E0.02811
G1 X125.961 Y100.394 E0.03059
G1 X126.806 Y100.654 E0.02773
G1 X127.598 Y101.076 E0.02814
G1 X128.326 Y101.671 E0.02948
G1 X128.936 Y102.421 E0.03030
G1 X129.357 Y103.220 E0.02833
G1 X129.616 Y104.083 E0.02825
G1 X129.695 Y104.955 E0.02745
G1 X129.321 Y104.989 F10800.000
G1 F900
G1 X129.328 Y105.061 E0.00227
G1 X129.233 Y105.905 E0.02662
G1 X128.983 Y106.695 E0.02599
G1 X128.547 Y107.480 E0.02815
G1 X128.005 Y108.116 E0.02622
G1 X127.363 Y108.627 E0.02573
G1 X126.639 Y109.006 E0.02560
G1 X125.787 Y109.256 E0.02785
G1 X124.983 Y109.329 E0.02531
G1 X124.172 Y109.249 E0.02556
G1 X123.352 Y109.003 E0.02686
G1 X122.564 Y108.578 E0.02806
G1 X121.930 Y108.052 E0.02582
G1 X121.416 Y107.428 E0.02536
G1 X121.009 Y106.674 E0.02685
G1 X120.749 Y105.819 E0.02803
G1 X120.671 Y104.998 E0.02586
G1 X120.750 Y104.177 E0.02586
G1 X121.010 Y103.322 E0.02801
G1 X121.416 Y102.572 E0.02675
G1 X121.933 Y101.945 E0.02547
G1 X122.565 Y101.421 E0.02573
G1 X123.353 Y100.997 E0.02809
G1 X124.172 Y100.751 E0.02679
G1 X124.989 Y100.671 E0.02573
G1 X125.884 Y100.763 E0.02821
G1 X126.663 Y101.003 E0.02556
G1 X127.389 Y101.390 E0.02582
G1 X128.056 Y101.935 E0.02700
G1 X128.621 Y102.628 E0.02804
G1 X129.007 Y103.362 E0.02598
G1 X129.246 Y104.155 E0.02598
G1 X129.316 Y104.929 E0.02436
G1 X128.942 Y104.963 F10800.000
G1 F900
G1 X128.951 Y105.065 E0.00321
G1 X128.864 Y105.828 E0.02407
G1 X128.636 Y106.549 E0.02372
G1 X128.234 Y107.269 E0.02586
G1 X127.737 Y107.850 E0.02396
G1 X127.154 Y108.313 E0.02336
G1 X126.494 Y108.659 E0.02336
G1 X125.715 Y108.886 E0.02545
G1 X124.983 Y108.952 E0.02303
G1 X124.242 Y108.879 E0.02335
G1 X123.495 Y108.654 E0.02448
G1 X122.772 Y108.264 E0.02575
G1 X122.195 Y107.784 E0.02350
G1 X121.728 Y107.217 E0.02304
G1 X121.357 Y106.530 E0.02448
G1 X121.119 Y105.746 E0.02570
G1 X121.048 Y104.996 E0.02360
G1 X121.120 Y104.251 E0.02348
G1 X121.359 Y103.466 E0.02574
G1 X121.730 Y102.780 E0.02444
G1 X122.200 Y102.211 E0.02312
G1 X122.773 Y101.736 E0.02336
G1 X123.501 Y101.344 E0.02592
G1 X124.250 Y101.120 E0.02450
G1 X124.991 Y101.048 E0.02336
G1 X125.815 Y101.133 E0.02596
G1 X126.520 Y101.352 E0.02315
G1 X127.178 Y101.702 E0.02338
G1 X127.790 Y102.202 E0.02477
G1 X128.307 Y102.837 E0.02566
G1 X128.659 Y103.507 E0.02375
G1 X128.876 Y104.228 E0.02359
G1 X128.936 Y104.903 E0.02125
; printing object unibody_adaptor_option.stl id:0 copy 0
G1 F8640.000
G1 X128.951 Y105.065 E-0.03753
G1 X128.864 Y105.828 E-0.17726
G1 X128.636 Y106.549 E-0.17465
G1 X128.234 Y107.269 E-0.19047
G1 X127.737 Y107.850 E-0.17647
G1 X127.725 Y107.860 E-0.00361
G1 E-0.04000 F2100.00000
G1 Z0.800 F10800.000
G1 X126.125 Y104.934
G1 Z0.400
G1 E0.80000 F2100.00000
M204 S800
G1 F900
G1 X126.112 Y105.179 E0.00831
G1 X126.047 Y105.416 E0.00831
G1 X125.871 Y105.715 E0.01173
G1 X125.696 Y105.886 E0.00831
G1 X125.493 Y106.013 E0.00810
G1 X125.267 Y106.094 E0.00810
G1 X125.030 Y106.126 E0.00810
G1 X124.791 Y106.107 E0.00810
G1 X124.562 Y106.038 E0.00810
G1 X124.353 Y105.922 E0.00810
G1 X124.172 Y105.764 E0.00810
G1 X124.030 Y105.572 E0.00809
G1 X123.934 Y105.363 E0.00779
G1 X123.872 Y105.001 E0.01242
G1 X123.928 Y104.652 E0.01198
G1 X124.030 Y104.428 E0.00831
G1 X124.172 Y104.236 E0.00810
G1 X124.353 Y104.078 E0.00810
G1 X124.562 Y103.962 E0.00810
G1 X124.791 Y103.893 E0.00809
G1 X125.020 Y103.874 E0.00779
G1 X125.376 Y103.937 E0.01222
G1 X125.597 Y104.045 E0.00835
G1 X125.786 Y104.193 E0.00810
G1 X125.939 Y104.377 E0.00810
G1 X126.052 Y104.595 E0.00831
G1 X126.112 Y104.875 E0.00970
M204 S1000
G1 X126.346 Y105.041 F10800.000
G1 X126.269 Y104.868
M204 S800
G1 F900
G1 X126.278 Y105.052 E0.00623
G1 X126.250 Y105.272 E0.00751
G1 X126.177 Y105.498 E0.00803
G1 X126.030 Y105.757 E0.01009
G1 X125.873 Y105.935 E0.00803
